X: 21750
T: King Of The Fairies
R: hornpipe
M: 4/4
K: Edorian
|:B2|E2- E>F G- G>A|B>=cB>A G>F (3FGA|B>EG>B E>F (3GFE|F2- F>E D>dc>d|
.E2 .E>F (3GGG G>A|B>A (3GAB d>c=c>A|B2 E2 G<FE>^D|E>eB>G E2:|
|:(3Bcd|e2 (3BcB (3Bcd e>f|g>ag>f e2- e>^d|e>BB>c B>^AB>c|(3dcd d>c B>c (3dcB|
e2 B2 (3Bcd e>f|g2- g>f e>f (3edc|(3Bcd (3efg (3fed (3Bcd|e2- e>^d e2 e>f|
g>Be>g f>cd>f|e>dB>c d>c (3def|d>BA>G F<G (3ABc|(3dcB A>F G<FE>D|
B>EC>^D E>FG>A|B2 e2 e>^de>f|e>B (3BcB B>AG>F|(3EDC (3BCD E2:|

